X:1
T:Title
%%score { ( 1 3 4 ) | ( 2 5 ) }
L:1/8
M:4/4
K:Ab
V:1 treble nm="Grand Piano"
V:3 treble 
V:4 treble 
V:2 bass 
V:5 bass 
V:1
 z4 z2[Q:1/4=100] [CE][CE] | [CA]>[CA] [CA][CA] [CA][EG][DF][CE] |[M:3/4] [CA]>[CA] AA A2 | %3
[M:1/4] A>c |[M:4/4] B>B BB BBAA |[M:3/4] GA [B,EG][A,=DF] [G,E]2 |[M:1/4] [A,E][G,DE] | %7
[M:4/4] [A,CA]>[CA] [CA][CA] [CA][EG][DF][CE] |[M:3/4] [CA]>[CA] [EA]B c2 |[M:1/4] cc | %10
[M:4/4] [Fd]>[Fd] [DF][Fd] [Ec][EB][EA]F |[M:3/4] Ec c>B [CA]2 |[M:1/4] [CA]>[DB] | %13
[M:4/4] [Ec]6 z2 | [Ec]4 [CA]2 z2 | B6 z2 | G2 F2 z4 | [EA]<[EA] [EA]<[EA] B<B c>c | %18
 [Fd]6 [Fd]>[Fd] | [Ec]4 z4 | [CA]6 z2 |] %21
V:2
 z4 z2 [A,,A,][A,,A,] | [A,,E,]>[A,,E,] [A,,E,][A,,E,] [A,,A,][A,,A,][A,,A,][A,,A,] | %2
[M:3/4] [A,,A,]>[A,,A,] [C,A,C][E,A,C] [A,C]2 |[M:1/4] [A,CE]>[A,CE] | %4
[M:4/4] [E,G,E]>[E,G,E] [F,A,=D][F,A,D][K:treble] [G,B,E][G,B,E][A,CF][A,CF] | %5
[M:3/4] [B,E][B,F][K:bass] B,,B,, E,D, |[M:1/4] C,B,, | %7
[M:4/4] A,,>[A,,E,] [A,,E,][A,,E,] [A,,A,][A,,A,][A,,A,][A,,A,] | %8
[M:3/4] [A,,A,]>[A,,A,] [C,A,][E,G,E] [A,E]2 |[M:1/4] [A,E][A,E] | %10
[M:4/4] [D,A,]>[D,A,] [D,A,][D,A,] [A,,A,][B,,G,][C,A,][D,A,D] | %11
[M:3/4] [E,A,C][E,A,E] [E,A,E]>[E,G,D] [A,,A,]2 |[M:1/4] [A,,E,]>[A,,E,] | %13
[M:4/4] [A,,A,]>A,, A,,A,, A,,[A,,A,][K:treble] D>F | [A,,A,]>A,, A,,A,, [A,,E,]A,, C>E | %15
 [E,G,E]>[E,G,] [B,,F,]>[B,,F,] [E,G,][E,G,] z2 | %16
 [E,B,E]>[E,B,] [A,B,=D][A,B,] [G,B,][G,B,][E,G,][D,B,] | %17
 [C,B,]<[C,A,] [C,A,]<[C,A,] [E,G,E]<[E,G,E] [A,E]>[A,E] | [D,A,]6 [D,A,]>[D,A,] | %19
 [E,A,]<E, .E,C [E,G,E][E,G,D] [E,D]>[E,D] | [A,,E,]6 z2 |] %21
V:3
 x8 | x8 |[M:3/4] x6 |[M:1/4] x2 |[M:4/4] x8 |[M:3/4] x6 |[M:1/4] x2 |[M:4/4] x8 |[M:3/4] x6 | %9
[M:1/4] x2 |[M:4/4] x8 |[M:3/4] x6 |[M:1/4] x2 |[M:4/4] z z/ A,/ A,A, A,[Fd] F>d | %14
 z z/ A,/ A,A, z E, A>c | z z/ E/ =D>D .E>B G>F | z z/ E/ z =D EEEE | x8 | x8 | %19
 z/ A,3/2 .A,A cB F>G | x8 |] %21
V:4
 x8 | x8 |[M:3/4] x6 |[M:1/4] x2 |[M:4/4] x8 |[M:3/4] x6 |[M:1/4] x2 |[M:4/4] x8 |[M:3/4] x6 | %9
[M:1/4] x2 |[M:4/4] x8 |[M:3/4] x6 |[M:1/4] x2 |[M:4/4] x8 | x8 | z4 z E z2 | x8 | x8 | x8 | %19
 z2 z/ A,3/2 z4 | x8 |] %21
V:5
 x8 | x8 |[M:3/4] x6 |[M:1/4] x2 |[M:4/4] x4[K:treble] x4 |[M:3/4] x2[K:bass] x4 |[M:1/4] x2 | %7
[M:4/4] x8 |[M:3/4] x6 |[M:1/4] x2 |[M:4/4] x8 |[M:3/4] x6 |[M:1/4] x2 |[M:4/4] x6[K:treble] x2 | %14
 x8 | x8 | x8 | x8 | x8 | z2 z/ E,3/2 z4 | x8 |] %21

